public/avatar/item2/5.svg

<svg xmlns:xlink="http://www.w3.org/1999/xlink" height="99.2" width="82.2" xmlns="http://www.w3.org/2000/svg"><use height="22.1" transform="translate(15.05 67.05)" width="31.5" xlink:href="#a"/><defs><g id="a" fill-rule="evenodd"><path d="m.55 32.9-.15.8-.25.3q-.45.1-.95-.2-.35-.2 0-.6.35-.4.75-.5l.6.2" fill="#3a1412" transform="translate(15.95 -20.3)"/><path d="m-1.1 26.95.85.6.05.95-.9-1.55m3.45.75-1.3-.8 1.1.3.2.5" fill="#ab8172" transform="translate(15.95 -20.3)"/><path d="M15.55 21.05v.8l-1.35 1.7q-4.8 5-14.35 5t-14.25-5.2l-1.55-2.1v-.95l1.35 1.75q4.55 4.85 14.25 4.85 10.2 0 14.85-4.65l1.05-1.2" fill="#d7a400" transform="translate(15.95 -20.3)"/><path d="M10.85 26.1q-4.35 2.45-11 2.45L-.3 26.9q6.65 0 11-2.05 1.1.3.15 1.25" fill="#be6c18" transform="translate(15.95 -20.3)"/><path d="M14.15 23.25q-4.8 5-14.35 5t-14.25-5.2l-1.15-1.45v-.2l.95 1.15Q-10.1 27.3-.4 27.3q10.2 0 14.85-4.55l1.05-1.15-1.35 1.65" fill="#ffe168" transform="translate(15.95 -20.3)"/><path d="m-2.5 27.3-.4.5q-3.25-.3-5.8-1.65 2.2.85 6.2 1.15" fill="#fcfbae" transform="translate(15.95 -20.3)"/><path d="M1.6 40.4q0 2-1.75 2-1.1 0-1.7-1l-.35-1q-4.45-.35-5.15-1.35-.35-.5.9-1.6Q-5.1 36.2-5.1 35.6q0-6.8 4.95-6.8 5 0 5 6.8 0 .55 1.3 1.65 1.15.95.9 1.4-.85 1.4-5.45 1.75" fill="#d7a400" transform="translate(15.95 -20.3)"/><path d="M2.95 35.5q0-.95-.75-2.65l-.95-2.5q-.1-.35.5-1.2Q4.9 30.6 4.9 35.6q0 .55 1.3 1.65 1.15.95.9 1.4-.6 1.1-4.15 1.6-.15.05-.85-.65l.85-4.1" fill="#be6c18" transform="translate(15.95 -20.3)"/><path d="M1.35 39.7H-1.9q-3.85-.35-4.4-1.2-.3-.4.75-1.35 1.15-1 1.15-1.55 0-6 4.25-6t4.25 6q0 .45 1.1 1.4 1 .8.8 1.2-.65 1.15-4.65 1.5" fill="#ffe168" transform="translate(15.95 -20.3)"/><path d="m-1.75 30.55 1.5-.1q.85.35.1.5-.95.15-1.35 2l-.35 2.5q-.65 3-1.2 3.3-.45.2-2.1-.75 1.5-1.35 1.7-3.1.35-3.55 1.7-4.35" fill="#fcfb88" transform="translate(15.95 -20.3)"/><path d="M-.45 41.8q-.7 0-.8-.55-.1-.55.95-.5.65 1.05-.15 1.05" fill="#fcce00" transform="translate(15.95 -20.3)"/><path d="M1.35 30.75q-1.25.2-2-.4Q.8 29.8.65 29.7l1.75.85q1.75 1.55 1.75 5.1 0 .4 1.6 2 .45.35.15.8-.4.7-2.75 1-.85.1-1.05-3.8-.35-4.2-.75-4.9" fill="#fabf15" transform="translate(15.95 -20.3)"/><path d="M-1.8 31q1.15-.85 1.05-.15 0 .15-.65.5l-1.55 3.1Q-2.6 31.7-1.8 31" fill="#fff" transform="translate(15.95 -20.3)"/><path d="M-.15 30.5q-2.05 0-2.05-2.05t2.05-2.05q2.05 0 2.05 2.05T-.15 30.5" fill="#d7a400" transform="translate(15.95 -20.3)"/><path d="M-.2 29.85q-1.5 0-1.5-1.5 0-1.55 1.5-1.55t1.5 1.55q0 1.5-1.5 1.5" fill="#ffe168" transform="translate(15.95 -20.3)"/><path d="M-.45 28.85q-.9 0-.9-.95t.9-.95q.95 0 .95.95t-.95.95" fill="#fcfb88" transform="translate(15.95 -20.3)"/><path d="M-.4 28.25q-.55 0-.55-.5 0-.55.55-.55.5 0 .5.55 0 .5-.5.5" fill="#fff" transform="translate(15.95 -20.3)"/><path d="m2.7 32.3 1 4q.5 1 1.4 1.75-.05.35-.65.45-.6.1-1.4-2.3l-.35-3.9" fill="#fcfb88" transform="translate(15.95 -20.3)"/><path d="M1.6 40.4q-.1 1.85-1.4 1.95.95-.6.2-1.85l1.2-.1m.35-12.15q.1 2.25-2.15 2.3 1-.75 1.05-1.1.65-.75.35-1.75l-.35-1.05 1.1 1.6" fill="#be6c18" transform="translate(15.95 -20.3)"/></g></defs></svg>

<?xml version="1.0" encoding="UTF-8" standalone="no"?>
<svg xmlns:xlink="http://www.w3.org/1999/xlink" height="99.2px" width="82.2px" xmlns="http://www.w3.org/2000/svg">
  <g transform="matrix(1.0, 0.0, 0.0, 1.0, 31.0, 46.75)">
    <use height="22.1" transform="matrix(1.0, 0.0, 0.0, 1.0, -15.95, 20.3)" width="31.5" xlink:href="#shape0"/>
  </g>
  <defs>
    <g id="shape0" transform="matrix(1.0, 0.0, 0.0, 1.0, 15.95, -20.3)">
      <path d="M0.55 32.9 L0.4 33.7 0.15 34.0 Q-0.3 34.1 -0.8 33.8 -1.15 33.6 -0.8 33.2 -0.45 32.8 -0.05 32.7 L0.55 32.9" fill="#3a1412" fill-rule="evenodd" stroke="none"/>
      <path d="M-1.1 26.95 L-0.25 27.55 -0.2 28.5 -1.1 26.95" fill="#ab8172" fill-rule="evenodd" stroke="none"/>
      <path d="M2.35 27.7 L1.05 26.9 2.15 27.2 2.35 27.7" fill="#ab8172" fill-rule="evenodd" stroke="none"/>
      <path d="M15.55 21.05 L15.55 21.85 14.2 23.55 Q9.4 28.55 -0.15 28.55 -9.7 28.55 -14.4 23.35 L-15.95 21.25 -15.95 20.3 -14.6 22.05 Q-10.05 26.9 -0.35 26.9 9.85 26.9 14.5 22.25 L15.55 21.05" fill="#d7a400" fill-rule="evenodd" stroke="none"/>
      <path d="M10.85 26.1 Q6.5 28.55 -0.15 28.55 L-0.3 26.9 Q6.35 26.9 10.7 24.85 11.8 25.15 10.85 26.1" fill="#be6c18" fill-rule="evenodd" stroke="none"/>
      <path d="M14.15 23.25 Q9.35 28.25 -0.2 28.25 -9.75 28.25 -14.45 23.05 L-15.6 21.6 -15.6 21.4 -14.65 22.55 Q-10.1 27.3 -0.4 27.3 9.8 27.3 14.45 22.75 L15.5 21.6 14.15 23.25" fill="#ffe168" fill-rule="evenodd" stroke="none"/>
      <path d="M-2.5 27.3 L-2.9 27.8 Q-6.15 27.5 -8.7 26.15 -6.5 27.0 -2.5 27.3" fill="#fcfbae" fill-rule="evenodd" stroke="none"/>
      <path d="M1.6 40.4 Q1.6 42.4 -0.15 42.4 -1.25 42.4 -1.85 41.4 L-2.2 40.4 Q-6.65 40.05 -7.35 39.05 -7.7 38.55 -6.45 37.45 -5.1 36.2 -5.1 35.6 -5.1 28.8 -0.15 28.8 4.85 28.8 4.85 35.6 4.85 36.15 6.15 37.25 7.3 38.2 7.05 38.65 6.2 40.05 1.6 40.4" fill="#d7a400" fill-rule="evenodd" stroke="none"/>
      <path d="M2.95 35.5 Q2.95 34.55 2.2 32.85 L1.25 30.35 Q1.15 30.0 1.75 29.15 4.9 30.6 4.9 35.6 4.9 36.15 6.2 37.25 7.35 38.2 7.1 38.65 6.5 39.75 2.95 40.25 2.8 40.3 2.1 39.6 L2.95 35.5" fill="#be6c18" fill-rule="evenodd" stroke="none"/>
      <path d="M1.35 39.7 L-1.9 39.7 Q-5.75 39.35 -6.3 38.5 -6.6 38.1 -5.55 37.15 -4.4 36.15 -4.4 35.6 -4.4 29.6 -0.15 29.6 4.1 29.6 4.1 35.6 4.1 36.05 5.2 37.0 6.2 37.8 6.0 38.2 5.35 39.35 1.35 39.7" fill="#ffe168" fill-rule="evenodd" stroke="none"/>
      <path d="M-1.75 30.55 L-0.25 30.45 Q0.6 30.8 -0.15 30.95 -1.1 31.1 -1.5 32.95 L-1.85 35.45 Q-2.5 38.45 -3.05 38.75 -3.5 38.95 -5.15 38.0 -3.65 36.65 -3.45 34.9 -3.1 31.35 -1.75 30.55" fill="#fcfb88" fill-rule="evenodd" stroke="none"/>
      <path d="M-0.45 41.8 Q-1.15 41.8 -1.25 41.25 -1.35 40.7 -0.3 40.75 0.35 41.8 -0.45 41.8" fill="#fcce00" fill-rule="evenodd" stroke="none"/>
      <path d="M1.35 30.75 Q0.1 30.95 -0.65 30.35 0.8 29.8 0.65 29.7 L2.4 30.55 Q4.15 32.1 4.15 35.65 4.15 36.05 5.75 37.65 6.2 38.0 5.9 38.45 5.5 39.15 3.15 39.45 2.3 39.55 2.1 35.65 1.75 31.45 1.35 30.75" fill="#fabf15" fill-rule="evenodd" stroke="none"/>
      <path d="M-1.8 31.0 Q-0.65 30.15 -0.75 30.85 -0.75 31.0 -1.4 31.35 L-2.95 34.45 Q-2.6 31.7 -1.8 31.0" fill="#ffffff" fill-rule="evenodd" stroke="none"/>
      <path d="M-0.15 30.5 Q-2.2 30.5 -2.2 28.45 -2.2 26.4 -0.15 26.4 1.9 26.4 1.9 28.45 1.9 30.5 -0.15 30.5" fill="#d7a400" fill-rule="evenodd" stroke="none"/>
      <path d="M-0.2 29.85 Q-1.7 29.85 -1.7 28.35 -1.7 26.8 -0.2 26.8 1.3 26.8 1.3 28.35 1.3 29.85 -0.2 29.85" fill="#ffe168" fill-rule="evenodd" stroke="none"/>
      <path d="M-0.45 28.85 Q-1.35 28.85 -1.35 27.9 -1.35 26.95 -0.45 26.95 0.5 26.95 0.5 27.9 0.5 28.85 -0.45 28.85" fill="#fcfb88" fill-rule="evenodd" stroke="none"/>
      <path d="M-0.4 28.25 Q-0.95 28.25 -0.95 27.75 -0.95 27.2 -0.4 27.2 0.1 27.2 0.1 27.75 0.1 28.25 -0.4 28.25" fill="#ffffff" fill-rule="evenodd" stroke="none"/>
      <path d="M2.7 32.3 L3.7 36.3 Q4.2 37.3 5.1 38.05 5.05 38.4 4.45 38.5 3.85 38.6 3.05 36.2 L2.7 32.3" fill="#fcfb88" fill-rule="evenodd" stroke="none"/>
      <path d="M1.6 40.4 Q1.5 42.25 0.2 42.35 1.15 41.75 0.4 40.5 L1.6 40.4" fill="#be6c18" fill-rule="evenodd" stroke="none"/>
      <path d="M1.95 28.25 Q2.05 30.5 -0.2 30.55 0.8 29.8 0.85 29.45 1.5 28.7 1.2 27.7 L0.85 26.65 1.95 28.25" fill="#be6c18" fill-rule="evenodd" stroke="none"/>
    </g>
  </defs>
</svg>
